X:9
T:Fújja a szél a kis kölpényi hegyet
S: Mezőkölpény
M:4/4
L:1/4
K:C
e d c/(BB/) | G A B G | D2 D z |
d A d (c/d/) | e<d c<B | A2 A z |
d A d (c/d/) | e/d/c/B/ A<G |
e d c B | G<A B G | D2 D z |
W: Fújja a szél a kiskölpényi hegyet
W: Járnék hozzád babám, de nem lehet.
W: Járnék hozzád, de rövid az idő,
W: Isten véled, magyar lány szerető.
W: 
W: Azért amért be vagyok sorozva,
W: Ne hidd babám, hogy leszek katona
W: Lesz a bíró hozzám olyan szíves,
W: Beírja, hogy nem vagyok húsz éves.
W:
W: Erdő, erdő, de szép kerek erdő,
W: Közepébe van egy gyásztemető,
W: Bácsrak engem is oda temetnének,
W: Katonának soha ne vinnének

